X: ~
T: The Dusty Miller
M: 9/8
L: 1/8
R: slip jig
K: A Major
|: c2 e e2 B cBA | F2 B B2 c dcB | c2 e e2 B cBA | E2 A A2 B cBA :|
|: c2 e f2 g aga | b2 B B2 c dcB | c2 e f2 g a2 b | a2 f e2 d cBA :|
|: c3 c2 B AGA | F2 B B2 c dcB | c3 c2 B AGA | E2 A A2 B cBA :|
